X:109
T:Short Life to Stepmothers, a Strathspey
S:Hamilton Complete Repository
M:4/4
L:1/8
Q:1/4=120
K:G
    (D<<G)(D<<G) (D<<G)(D<<G)|(EA)(A>E)           (GB) (TBd)|\
    (D<<G)(D<<G) (D<<G)(D<<G)|(EA) A>F             G2    G2:|
{^c'}d'2{^c'}d'2  bgg>f      | eaa>g               fdfb     |\
{^c'}d'2{^c'}d'2  bgg>f      | eaa>f            {f}g2    G2 |
{^c'}d'2{^c'}d'2  bgTg>f     | ea/b/ (c'/b/).a/.g/ fdgb     |\
    (d'b).g.d    (bg).d.B    | ecAF             {F}G2    G2:|

